dist/svgs/crypto-icons/icons/clam.svg

<?xml version="1.0" encoding="UTF-8" standalone="yes"?>
<svg xmlns="http://www.w3.org/2000/svg" xmlns:xlink="http://www.w3.org/1999/xlink" width="512px" height="512px" viewBox="0 0 384 384" version="1.1">
  <g id="surface1">
    <path style=" stroke:none;fill-rule:nonzero;fill:rgb(0%,0%,0%);fill-opacity:1;" d="M 226.546875 33.605469 C 226.546875 50.769531 226.027344 111.539062 219.375 172.792969 C 213.097656 230.535156 203.136719 293.894531 200.859375 308.128906 C 203.738281 308.40625 206.453125 308.855469 209.039062 309.429688 C 214.511719 298.238281 241.503906 242.121094 253.867188 199.953125 C 268.023438 151.679688 276.191406 87.300781 276.421875 61.261719 C 276.4375 59.558594 276.453125 58.007812 276.460938 56.578125 C 271.765625 49.3125 261.519531 35.789062 248.261719 32.171875 C 236.695312 29.019531 229.957031 30.402344 226.546875 31.863281 Z M 226.546875 33.605469 "/>
    <path style=" stroke:none;fill-rule:nonzero;fill:rgb(0%,0%,0%);fill-opacity:1;" d="M 282.148438 61.3125 C 281.914062 87.675781 273.660156 152.796875 259.359375 201.566406 C 247.21875 242.984375 221.183594 297.566406 214.679688 310.933594 C 217.464844 311.820312 220.183594 312.90625 222.816406 314.179688 C 229.816406 305.035156 261.914062 262.367188 281.996094 223.777344 C 305.675781 178.257812 327.695312 117.875 330.675781 106.15625 L 331.898438 101.359375 C 329.265625 93.222656 322.980469 78.078125 310.78125 70.113281 C 298.1875 61.890625 287.152344 60.984375 282.148438 61.085938 Z M 282.148438 61.3125 "/>
    <path style=" stroke:none;fill-rule:nonzero;fill:rgb(0%,0%,0%);fill-opacity:1;" d="M 287.074219 226.421875 C 267.273438 264.46875 235.980469 306.351562 227.902344 316.957031 C 231.238281 318.984375 234.371094 321.328125 237.257812 323.957031 C 245.851562 315.511719 281.699219 279.859375 305.558594 249.804688 C 333.097656 215.117188 360.464844 166.414062 364.941406 155.855469 L 367.269531 150.355469 C 366.632812 143.367188 364.683594 132.261719 358.75 124.042969 C 351.800781 114.425781 341.140625 109.597656 336.175781 107.765625 C 332.425781 122.261719 309.628906 183.078125 287.074219 226.421875 Z M 96.054688 65.816406 C 98.207031 82.886719 108.402344 136.996094 126.199219 195.269531 C 142.160156 247.53125 165.894531 299.695312 171.226562 311.179688 C 174 310.277344 176.828125 309.558594 179.699219 309.027344 C 177.597656 296.585938 166.722656 231.125 159.984375 169.570312 C 152.628906 102.292969 149.632812 45.285156 149.234375 33.703125 C 149.222656 33.304688 149.214844 32.953125 149.203125 32.5625 C 144.1875 31.089844 132.996094 29.265625 118.628906 35.929688 C 105.410156 42.058594 98.503906 53.570312 95.378906 60.492188 C 95.582031 62.074219 95.804688 63.84375 96.054688 65.816406 Z M 154.957031 33.507812 C 155.355469 45.042969 158.339844 101.84375 165.679688 168.949219 C 172.425781 230.625 183.339844 296.238281 185.367188 308.21875 C 188.105469 307.929688 190.859375 307.785156 193.617188 307.785156 C 194.121094 307.785156 194.605469 307.8125 195.109375 307.820312 C 197.179688 294.890625 207.324219 230.621094 213.675781 172.171875 C 220.304688 111.203125 220.820312 50.695312 220.820312 33.601562 L 220.820312 30.855469 C 215.433594 26.054688 202.941406 16.660156 187.652344 16.660156 C 172.367188 16.660156 160.136719 26.054688 154.882812 30.851562 C 154.90625 31.71875 154.925781 32.578125 154.957031 33.507812 Z M 193.617188 313.511719 C 162.394531 313.511719 148.148438 332.121094 143.9375 339.03125 C 170.339844 358.394531 187.117188 366.960938 193.855469 366.960938 C 200.609375 366.960938 219.726562 356.59375 243.226562 339.867188 C 238.902344 332.597656 224.621094 313.511719 193.617188 313.511719 Z M 193.617188 313.511719 "/>
    <path style=" stroke:none;fill-rule:nonzero;fill:rgb(0%,0%,0%);fill-opacity:1;" d="M 370.0625 158.425781 C 365.128906 169.773438 337.636719 218.601562 310.039062 253.367188 C 286.035156 283.617188 250.050781 319.410156 241.308594 328.007812 C 243.734375 330.652344 245.914062 333.507812 247.832031 336.542969 C 266.574219 322.828125 284.453125 307.964844 301.355469 292.035156 C 346.453125 249.441406 382.371094 207.324219 383.5625 186.085938 C 384.46875 169.945312 374.777344 161.535156 370.0625 158.425781 Z M 15.796875 154.320312 C 26.089844 180.410156 45.71875 211.324219 74.140625 246.195312 C 107.839844 287.558594 140.839844 316.84375 149.117188 323.980469 C 151.046875 322.21875 153.089844 320.585938 155.230469 319.09375 C 147.222656 309.605469 118.609375 274.195312 92.277344 222.949219 C 62.78125 165.542969 51.574219 125.820312 46.789062 108.863281 L 46.074219 106.335938 L 46.042969 106.226562 C 39.445312 107.992188 22.792969 113.515625 16.257812 125.589844 C 12.914062 131.765625 11.890625 138.195312 11.832031 143.664062 C 13.078125 147.242188 14.402344 150.796875 15.796875 154.320312 Z M 15.796875 154.320312 "/>
    <path style=" stroke:none;fill-rule:nonzero;fill:rgb(0%,0%,0%);fill-opacity:1;" d="M 145.070312 328.050781 C 136.148438 320.335938 103.238281 290.984375 69.695312 249.816406 C 41.925781 215.734375 22.429688 185.304688 11.648438 159.285156 C 7.601562 162.84375 -0.808594 172.328125 0.152344 189.125 C 1.402344 211.140625 33.023438 245.984375 90.769531 296.09375 C 109.34375 312.210938 125.53125 325.28125 139.320312 335.605469 C 141.019531 332.929688 142.945312 330.402344 145.070312 328.050781 Z M 51.585938 104.761719 L 52.300781 107.308594 C 57.042969 124.101562 68.136719 163.433594 97.371094 220.332031 C 124.101562 272.359375 153.128906 307.792969 160.121094 316.015625 C 161.980469 314.976562 163.894531 314.039062 165.851562 313.203125 C 160.097656 300.785156 136.59375 248.914062 120.722656 196.941406 C 102.816406 138.3125 92.542969 83.761719 90.375 66.535156 L 90.292969 65.878906 C 85.238281 65.605469 74.367188 66.121094 63.863281 73.871094 C 54.945312 80.449219 51.304688 91.125 49.828125 98.242188 C 50.273438 100.035156 50.84375 102.167969 51.585938 104.761719 Z M 51.585938 104.761719 "/>
  </g>
</svg>

<svg xmlns="http://www.w3.org/2000/svg" viewBox="0 0 384 384"><path d="M226.547 33.605c0 17.165-.52 77.934-7.172 139.188-6.277 57.742-16.238 121.102-18.516 135.336 2.88.277 5.594.726 8.18 1.3 5.473-11.19 32.465-67.308 44.828-109.476 14.156-48.273 22.324-112.652 22.555-138.691.015-1.703.031-3.254.039-4.684-4.695-7.266-14.941-20.789-28.2-24.406-11.566-3.152-18.304-1.77-21.714-.309zm0 0"/><path d="M282.148 61.313c-.234 26.363-8.488 91.484-22.789 140.253-12.14 41.418-38.175 96-44.68 109.368a61.624 61.624 0 018.137 3.246c7-9.145 39.098-51.813 59.18-90.403 23.68-45.52 45.7-105.902 48.68-117.62l1.222-4.798c-2.632-8.136-8.918-23.28-21.117-31.246-12.594-8.222-23.629-9.129-28.633-9.027zm0 0"/><path d="M287.074 226.422c-19.8 38.047-51.094 79.93-59.172 90.535a60.755 60.755 0 019.356 7c8.594-8.445 44.441-44.098 68.3-74.152 27.54-34.688 54.907-83.39 59.383-93.95l2.329-5.5c-.637-6.988-2.586-18.093-8.52-26.312-6.95-9.617-17.61-14.445-22.574-16.277-3.75 14.496-26.547 75.312-49.102 118.656zM96.054 65.816c2.153 17.07 12.348 71.18 30.145 129.454 15.961 52.261 39.696 104.425 45.028 115.91a66.457 66.457 0 018.472-2.153c-2.101-12.441-12.976-77.902-19.715-139.457-7.355-67.277-10.351-124.285-10.75-135.867l-.03-1.14c-5.017-1.473-16.208-3.297-30.575 3.367-13.219 6.129-20.125 17.64-23.25 24.562.203 1.582.426 3.352.676 5.324zm58.903-32.308c.398 11.535 3.383 68.336 10.723 135.441 6.746 61.676 17.66 127.29 19.687 139.27a78.587 78.587 0 018.25-.434c.504 0 .988.027 1.492.035 2.07-12.93 12.215-77.199 18.567-135.648 6.629-60.969 7.144-121.477 7.144-138.57v-2.747c-5.386-4.8-17.879-14.195-33.168-14.195-15.285 0-27.515 9.395-32.77 14.192.024.867.044 1.726.075 2.656zm38.66 280.004c-31.222 0-45.469 18.61-49.68 25.52 26.403 19.363 43.18 27.929 49.918 27.929 6.754 0 25.872-10.367 49.372-27.094-4.325-7.27-18.606-26.355-49.61-26.355zm0 0"/><path d="M370.063 158.426c-4.934 11.347-32.426 60.176-60.024 94.941-24.004 30.25-59.988 66.043-68.73 74.64a60.164 60.164 0 016.523 8.536 561.515 561.515 0 0053.523-44.508c45.098-42.594 81.016-84.71 82.207-105.95.907-16.14-8.785-24.55-13.5-27.66zM15.796 154.32c10.293 26.09 29.922 57.004 58.344 91.875 33.699 41.364 66.699 70.649 74.976 77.785a59.722 59.722 0 016.113-4.886c-8.007-9.489-36.62-44.899-62.953-96.145-29.496-57.406-40.703-97.129-45.488-114.086l-.715-2.527-.031-.11c-6.598 1.766-23.25 7.29-29.785 19.364-3.344 6.176-4.367 12.605-4.426 18.074a272.435 272.435 0 003.965 10.656zm0 0"/><path d="M145.07 328.05c-8.922-7.714-41.832-37.066-75.375-78.234-27.77-34.082-47.265-64.511-58.047-90.53C7.602 162.843-.809 172.327.152 189.124c1.25 22.016 32.871 56.86 90.618 106.969 18.574 16.117 34.761 29.187 48.55 39.511a56.242 56.242 0 015.75-7.554zM51.586 104.763l.715 2.547c4.742 16.793 15.836 56.125 45.07 113.023 26.73 52.027 55.758 87.461 62.75 95.684a60.31 60.31 0 015.73-2.813c-5.753-12.418-29.257-64.289-45.128-116.262-17.907-58.629-28.18-113.18-30.348-130.406l-.082-.656c-5.055-.274-15.926.242-26.43 7.992-8.918 6.578-12.558 17.254-14.035 24.371a192.692 192.692 0 001.758 6.52zm0 0"/></svg>
